X:3037
T:Cs\'ard\'as
C:anon.
O:Hungary
Z:Transcribed by Frank Nordberg - http://www.musicaviva.com
F:http://abc.musicaviva.com/tunes/hungary/csardas.abc
M:C
L:1/8
Q:1/4=132
K:G
"G"G/G/G/G/ B/B/B/B/ d/d/d/d/ g/g/g/g/|"A"g>f eg "D"f>a df|\
"A"e>g ^ce "D"d z "B7"^d z|"C"e>d ce "G"dg dB|
"D"d^d ec "G"B/=d^c/4d/4 (3(e/4d/4^c/4)d/4e/4 d|"C"e>d ce "G"db ge|\
"D"d^d ef a/gf/4g/4"G" (3(a/4g/4f/4)g/4a/4 g|\
"_Fine"Hz2 "C"e2 "D7"f2 "G"Hg2||
K:Gm
|:"Gm"d2d2 d2d2|"Cm"cde2 "Gm"d3B|\
"D"AB c2 "Eb"B3G|[1"D7"^FGA2 "Gm"G2 z2:|[2"D7"^FGA2 "Gm"G2 z2||
|:"Eb"g^f (g/f/)(g/f/) gag2|"Bb"=f=e (f/e/)(f/e/) "G7"fgf2|\
"F/C"_ed (e/d/)(e/d/) "F"eg fe|"Bb"ed2^c d4|
"Cm"c=B (c/B/)(c/B/) cdc2|"Gm"BA (B/A/)(B/A/) BcB2|\
"D"A2e2 d2^F2|"Gm"AG2^F G/A/G/F/G2:|
K:G
|:"G"dBd2 dBd2|"C"ef ge "G"dB "G#dim"d2|\
"Am".e.e .c.c "D".A.A dd|[1"G"G3F GB c^c:|[2"G"G3F G4|]
W:
W:
W:  From Musica Viva - http://www.musicaviva.com
W:  the Internet center for free sheet music downloads.
